X: 19911
T: Jig In The Castle
R: jig
M: 6/8
K: Adorian
|:A2A e2e|dBA Bde|A2A e2e|dBA GAB|
A2A e2e|dBA Bde|a2g ede|1 ~g3 edB:|2 ~g3 ede||
|:a2a bag|eag ede|aea bag|eag ede|
a2a bag|eag ede|g2a ged|1 age deg:|2 age dBd||

